assets/resources/icons/services/Divan.svg

<svg width="50" height="50" viewBox="0 0 50 50" fill="none" xmlns="http://www.w3.org/2000/svg">
<path d="M10.25 34.5001L9.94996 34.2001C8.09996 32.4501 6.79996 30.5001 6.09996 28.3001C5.44996 26.4001 4.84996 23.8501 5.74996 20.9001C5.74996 20.8001 6.59996 17.6501 9.69996 16.2001L9.79996 16.1501C11.85 15.3001 14.05 15.3001 15.85 16.1001C17.5 16.8501 18.25 18.0001 19 19.2001C19.5 20.0501 20.05 20.9001 20.95 21.8001C22.35 23.2001 24.2 24.2501 26.35 24.9501C28.05 25.2501 29.65 25.2501 31.15 24.9501C31.9 24.8001 32.65 24.5501 33.45 24.3001C35.25 23.7501 37.05 23.1501 39.15 23.4001C39.55 23.4501 39.95 23.5001 40.4 23.7001C41.4 24.0501 42.85 24.9501 43.9 26.9001C45.65 29.8501 44.7 33.0501 44.5 33.6501L44.25 34.5001H10.25ZM10.5 18.0001C8.29996 19.1001 7.69996 21.4001 7.64996 21.4501C6.89996 23.9001 7.39996 26.0001 7.99996 27.7001C8.59996 29.4501 9.59996 31.0501 11.05 32.5001H42.7C42.9 31.5501 43.05 29.5501 42.05 27.9001C41.4 26.7001 40.55 25.9501 39.55 25.6001H39.5C39.25 25.5001 39.05 25.4501 38.75 25.4001C37.1 25.2001 35.55 25.7001 33.9 26.2001C33.1 26.4501 32.25 26.7001 31.45 26.9001C29.7 27.3001 27.8 27.3001 25.8 26.9001H25.7C23.2 26.1501 21.1 24.9001 19.45 23.2501C18.35 22.1501 17.7 21.1001 17.2 20.3001C16.5 19.2001 16.05 18.4501 14.95 18.0001C13.2 17.1001 11.25 17.7001 10.5 18.0001Z" fill="#876671"/>
</svg>

<?xml version="1.0" encoding="utf-8"?>
<!-- Generator: Adobe Illustrator 25.0.0, SVG Export Plug-In . SVG Version: 6.00 Build 0)  -->
<svg version="1.1" id="Capa_1" xmlns="http://www.w3.org/2000/svg" xmlns:xlink="http://www.w3.org/1999/xlink" x="0px" y="0px"
	 viewBox="0 0 50 50" style="enable-background:new 0 0 50 50;" xml:space="preserve">
<style type="text/css">
	.st0{fill:#A52016;}
</style>
<path class="st0" d="M10.2,34.5l-0.3-0.3c-1.8-1.8-3.1-3.7-3.8-5.9c-0.6-1.9-1.2-4.5-0.3-7.4c0-0.1,0.8-3.2,3.9-4.7l0.1,0
	c2.1-0.9,4.3-0.9,6.1-0.1c1.6,0.8,2.4,1.9,3.1,3.1c0.5,0.9,1,1.7,2,2.6c1.4,1.4,3.2,2.4,5.4,3.1c1.7,0.3,3.3,0.3,4.8,0
	c0.8-0.1,1.5-0.4,2.3-0.6c1.8-0.6,3.6-1.1,5.7-0.9c0.4,0,0.8,0.1,1.2,0.3c1,0.4,2.4,1.2,3.5,3.2c1.8,2.9,0.8,6.1,0.6,6.8l-0.2,0.8
	H10.2z M10.5,18c-2.2,1.1-2.8,3.4-2.9,3.5C6.9,23.9,7.4,26,8,27.7c0.6,1.8,1.6,3.4,3.1,4.8h31.7c0.2-0.9,0.3-2.9-0.7-4.6
	c-0.6-1.2-1.5-2-2.5-2.3h0c-0.2-0.1-0.5-0.1-0.8-0.2c-1.7-0.2-3.2,0.3-4.8,0.8c-0.8,0.2-1.7,0.5-2.5,0.7c-1.8,0.4-3.7,0.4-5.7,0
	h-0.1c-2.5-0.8-4.6-2-6.2-3.7c-1.1-1.1-1.8-2.1-2.2-2.9c-0.7-1.1-1.2-1.9-2.3-2.3C13.2,17.1,11.2,17.7,10.5,18z"/>
</svg>
